pro/src/icons/stroke-booked.svg

<svg width="48" height="48" viewBox="0 0 48 48" fill="none" xmlns="http://www.w3.org/2000/svg">
<path id="icon" fill-rule="evenodd" clip-rule="evenodd" d="M30.9663 7C30.9663 5.89228 31.8575 5 32.9638 5C34.0701 5 34.9613 5.89228 34.9613 7H34.2222C33.6706 7 33.2235 7.44772 33.2235 8C33.2235 8.55228 33.6706 9 34.2222 9H35.9601H35.98H39.9551C41.0635 9 41.9775 9.89638 42.0025 11.0089L41.9526 36.8981L41.9527 36.9149C41.9943 39.7089 39.7451 42 36.9588 42H10.9913C8.23699 42 5.9975 39.7577 5.9975 37V17H36.9788C37.5304 17 37.9776 16.5523 37.9776 16C37.9776 15.4477 37.5304 15 36.9788 15H5.9975V11C5.9975 9.89228 6.88867 9 7.99501 9H11.0113C11.0113 11.2123 12.7967 13 15.0063 13C15.5579 13 16.005 12.5523 16.005 12C16.005 11.4477 15.5579 11 15.0063 11C13.8999 11 13.0088 10.1077 13.0088 9V7C13.0088 5.89228 13.8999 5 15.0063 5C16.1126 5 17.0038 5.89228 17.0038 7H16.2447C15.6931 7 15.246 7.44772 15.246 8C15.246 8.55228 15.6931 9 16.2447 9H18.0025H18.0025H28.9688C28.9688 11.2123 30.7543 13 32.9638 13C33.5154 13 33.9625 12.5523 33.9625 12C33.9625 11.4477 33.5154 11 32.9638 11C31.8575 11 30.9663 10.1077 30.9663 9V8.20007C30.9794 8.13543 30.9863 8.06852 30.9863 8C30.9863 7.93148 30.9794 7.86457 30.9663 7.79993V7ZM28.9688 7H19.0013C19.0013 4.78772 17.2158 3 15.0063 3C12.7967 3 11.0113 4.78772 11.0113 7H7.99501C5.78548 7 4 8.78772 4 11V37C4 40.8623 7.1338 44 10.9913 44H36.9588C40.8612 44 44.0034 40.7959 43.9501 36.8939L44 11.0019L43.9998 10.9819C43.9601 8.77871 42.1595 7 39.9551 7H36.9588C36.9588 4.78772 35.1733 3 32.9638 3C30.7543 3 28.9688 4.78772 28.9688 7ZM30.1864 23.9715C30.6163 23.523 31.3285 23.5079 31.777 23.9378C32.2255 24.3677 32.2406 25.0799 31.8107 25.5284L30.8883 26.4908C30.8766 26.5042 30.8645 26.5174 30.852 26.5304L22.6846 35.0495C21.9492 35.8168 20.7343 35.8167 19.999 35.0494L19.9967 35.0469L15.9349 30.7776C15.5067 30.3275 15.5244 29.6154 15.9746 29.1872C16.4247 28.7589 17.1368 28.7767 17.565 29.2268L21.3429 33.1978L29.1903 25.0126C29.202 24.9992 29.214 24.986 29.2264 24.9731L30.1864 23.9715Z" fill="currentColor"/>
</svg>

<svg xmlns="http://www.w3.org/2000/svg" width="48" height="48" fill="none"><path id="icon" fill="currentColor" fill-rule="evenodd" d="M30.966 7c0-1.108.892-2 1.998-2s1.997.892 1.997 2h-.739a1 1 0 0 0 0 2h5.733c1.108 0 2.023.896 2.047 2.009l-.05 25.89v.016C41.995 39.709 39.746 42 36.96 42H10.99a5 5 0 0 1-4.993-5V17h30.98a1 1 0 0 0 0-2H5.999v-4c0-1.108.89-2 1.997-2h3.016c0 2.212 1.786 4 3.995 4a1 1 0 0 0 0-2 1.995 1.995 0 0 1-1.997-2V7c0-1.108.89-2 1.997-2s1.998.892 1.998 2h-.76a1 1 0 0 0 0 2H28.97c0 2.212 1.785 4 3.995 4a1 1 0 0 0 0-2 1.995 1.995 0 0 1-1.998-2v-.8a1 1 0 0 0 0-.4zM28.97 7H19c0-2.212-1.785-4-3.995-4a3.993 3.993 0 0 0-3.995 4H7.995A3.993 3.993 0 0 0 4 11v26c0 3.862 3.134 7 6.991 7H36.96c3.902 0 7.044-3.204 6.991-7.106L44 11.002v-.02A4.056 4.056 0 0 0 39.955 7H36.96c0-2.212-1.786-4-3.995-4a3.993 3.993 0 0 0-3.995 4m1.217 16.972a1.125 1.125 0 0 1 1.625 1.556l-.923.963-.036.04-8.167 8.519a1.854 1.854 0 0 1-2.686 0l-.002-.003-4.062-4.27a1.125 1.125 0 1 1 1.63-1.55l3.778 3.97 7.847-8.184.036-.04z" clip-rule="evenodd"/></svg>
